X:43
T:B043-  The Bride's good-morrow (odd display)
Q:1/4=120
L:1/4
M:C|
K:C
d|cdef|ed2d|cdef|ed2e|\
L:1/4
M:6/4
fgefed|\
L:1/4
M:C|
e2d2|c4:|]
